X: 2
T: Jerry O'Sullivan's
R: reel
M: 4/4
L: 1/8
K: Gmaj
z | G2 G>B A>GA>B | G>ED>E A<A A2 |
G2 G>B A>GA>B | G>ED>E G<G G :|
d | d>eg>B A>GA>B | d>eg>B A<A A2 |
d>eg>B A>GA>B | G>ED>E G<G G :|


Tune 2635	Setting 2635

